!!!COM: Josephine Lang
!!!CNT: Deutsch
!!!TXO: Deutsch
!!!OTL: "Den Abschied schnell genommen"
!!!LYR: C. Reinhold
!!!OPS: Op. 15
!!!ONM: No. 1
!!!ENC: Alyona Dzerbina
!!!YOR: Josephine Lang: Selected Songs
!!!YOR: Da Capo Press, 1982
!!!ODT: 1838/
!!NB: Vocal melody only encoded.
**kern
*staff1
*clefG2
*k[b-e-a-d-g-]
*M2/2
*MM[Presto ed agitato]
=1
{4.f
8f
4en
4f
=2
4g-
4gn
4b-
8a-
8r
=3
4dd-
8r
8b-
4a-
4g-
=4
4b-
8r
8g-
2e-}
=5
{4.e-
8e-
4e-
4e-
=6
4e-
4ee-
4dd-
4cc
=7
4.ff
8dd-
4cc
4b-
=8
4.a-
8g-
2f}
=9
{4.ff
8ee-
4dd-
4f
=10
2.a-
4c
=11
2d-}
2r
=12
1r
=13
1r
=14
1r
=15
1r
=16
{4.e-
8e-
4e-
4e-
=17
4.e-
8e-
4a-
4e-
=18
4.dd-
8b-
4a-
4gn
=19
4a-
4b-
2cc}
=20
{4.g-
8g-
4g-
4g-
=21
8f
8r
4ee-
4dd-
4cc
=22
4.cc
8b-
4a-
4g-
=23
4.f
8e-
2f}
=24
{(2.f
4f
=25
2b-
4g-
4e-)
=26
[1d-
=27
2.d-]
4c
=28
2e-}
2r
=29
1r
=30
1r
=31
{(2.a-
4dd-
=32
2cc
4a-)}
4r
=33
1r
=34
1r
=35
{(2.a-
4ff
=36
2ee-
4a-)}
4r
=37
*k[f#c#g#d#]
{(2g#
4.f#)
8e
=38
2.b
4f#
=39
(2g#
4.f#)
8e
=40
2.b}
4r
=41
{(2.g#
4g#
=42
2b
4g#)}
4r
=43
{(2.g#
4g#
=44
2b
4g#)
4r
=45
2.g#
4g#
=46
*k[b-e-a-d-g-]
(2cc
4.b-)
8a-
=47
2a-
2b-
=48
2.cc}
4r
=49
{2.cc
4cc
=50
2cc
4f
4r
=51
2.ee-
4ee-
=52
[1ee-
=53
4ee-]
4dd-
4cc
4b-
=54
(2.ee-
4e-
=55
2.cc
4b-
=56
a-q
2a-)}
2r
=57
1r
=58
1r
=59
1r
=60
1r
=61
1r
=62
{(4f
8r
8f
4en
4f
=63
4g-
4gn
4b-
8a-)
8r
=64
4.dd-
8b-
4a-
4g-
=65
4.b-
8g-
4e-}
4r
=66
{(4e-
8r
8e-
4e-
4e-
=67
4e-
4ee-
4dd-
8cc)
8r
=68
4ff
8r
8dd-
4cc
4b-
=69
4.a-
8g-
2f}
=70
{[1ff
=71
4ff]
4gg-
4b-
4ee-
=72
(2f
2dd-
=73
4cc
4a-
4.g-
8e-
=74
2d-)}
2r
=75
1r
=76
1r
=77
1r
=78
1r
=79
1r
==
*-
